X: 14276
T: Gaelic Farmer, The
R: waltz
M: 3/4
K: Gmajor
dc|B3 A G2|B3 A G2|Bd- d4|d4 d2|e3 f e2|d2 c2 B2|A6-|A4
dc|B3 A G2|B3 A G2|B2 d4|d4 d2|e3 f g2|f2 a2 f2|g3 e dB|G4:|
d2|g3 f g2|g2 b2 g2|f3 e f2|d4 ef|g3 f e2|d2 c2 B2|A6-|A4
dc|B3 A G2|B3 A G2|B2 d4|d4 d2|e3 f g2|f2 a2 f2|g6-|g4:|

